X: 21823
T: THE WEAVER HAS A DAUGHTER -- Strathspey
R: strathspey
B: K\"ohler's Violin Repository, v.2, 1885 p.182 #3
F: http://www.archive.org/details/klersviolinrepos02rugg
Z: 2012 John Chambers <jc:trillian.mit.edu>
M: C|
L: 1/8
K: Gm
ud |\
B<G(G>A) (G>F)~"_\="F>d | B<G(~G>F) {d}e3ug |\
(.f>.e)(~d>c) B>GF<e | (.d>.c)(B>A) {^F}G2G :|
|: u^f |\
f<d(e>=e) (=f>c)c>^f | g<d(d>g) (d<b)a>g |\
(.[bf]>.e)(~d>c) B>GF<e | (.d>.c)(B>A) "^Segue Reel."{^F}G2G :|

%%sep 2 1 500

